src/images_karasa_jaga_svg/cmd/sc_rowheight.svg

<svg height="16" width="16" xmlns="http://www.w3.org/2000/svg" xmlns:xlink="http://www.w3.org/1999/xlink"><linearGradient id="a" gradientTransform="matrix(0 1 1 0 -16.00001 -7.979872)" gradientUnits="userSpaceOnUse" x1="63.979874" x2="67.979874" y1="56.000011" y2="-7.99999"><stop offset="0" stop-color="#0968ef"/><stop offset="1" stop-color="#aecffc"/></linearGradient><linearGradient id="b" gradientTransform="matrix(1.0769499 0 0 1.5652564 2.256411 -5.222398)" gradientUnits="userSpaceOnUse" x1="46.048" x2="46.048" y1="110.69923" y2="16.6203"><stop offset="0" stop-color="#c7cdd7"/><stop offset="1" stop-color="#fff"/></linearGradient><linearGradient id="c" gradientUnits="userSpaceOnUse" x1="67.266975" x2="67.266975" y1="176.02724" y2="-80.020844"><stop offset="0"/><stop offset="1" stop-color="#fff"/></linearGradient><linearGradient id="d" gradientUnits="userSpaceOnUse" x1="80" x2="128.00005" y1="72" y2="72"><stop offset="0" stop-color="#fff"/><stop offset="1" stop-color="#fff" stop-opacity="0"/></linearGradient><mask id="e" maskUnits="userSpaceOnUse"><path d="m0 16h128.00005v112h-128.00005z" fill="url(#d)"/></mask><g transform="scale(.125)"><text x="552.36987" y="202.81038"><tspan fill="#555" x="552.36987" y="219.61037"/></text><text x="284.18808" y="202.81038"><tspan fill="#555" x="284.18808" y="219.61037"/></text><text x="-10.252362" y="133.87732"><tspan fill="#555" x="-10.252362" y="150.67731"/></text><text x="161.66467" y="-39.856026"><tspan fill="#555" x="161.66467" y="-23.056038"/></text><text x="681.37421" y="191.74835"><tspan fill="#555" x="681.37421" y="208.54834"/></text><text x="386.93372" y="122.81529"><tspan fill="#555" x="386.93372" y="139.61528"/></text><text x="916.79553" y="269.00107"><tspan fill="#555" x="916.79553" y="285.80106"/></text><g mask="url(#e)" transform="translate(0 -8)"><path d="m36.906408 55.955807h91.093592v24.044193h-91.093592z" fill="url(#b)"/><path d="m32 56v4 28 4 4h5 38 5 27 5 16v-8h-16v-24h16v-8h-16-5-27-5-38zm5 8h38v24h-38zm43 0h27v24h-27z" fill="url(#c)" transform="translate(0 -8)"/></g><text x="-125.08443" y="-253.18964"><tspan fill="#555" x="-125.08443" y="-236.38965"/></text><text x="-393.26624" y="-253.18964"><tspan fill="#555" x="-393.26624" y="-236.38965"/></text><text x="-687.70667" y="-322.12268"><tspan fill="#555" x="-687.70667" y="-305.32269"/></text><text x="-515.78961" y="-495.85605"><tspan fill="#555" x="-515.78961" y="-479.05606"/></text><text x="3.919907" y="-264.25165"><tspan fill="#555" x="3.919907" y="-247.45168"/></text><text x="-290.5206" y="-333.18472"><tspan fill="#555" x="-290.5206" y="-316.38474"/></text><text x="239.34123" y="-186.99895"><tspan fill="#555" x="239.34123" y="-170.19896"/></text><path d="m24 40h-24v8h8v24h-8v8h24v-8h-8v-24h8z" fill="url(#a)" fill-rule="evenodd"/></g></svg>

<?xml version="1.0" encoding="UTF-8" standalone="no"?>
<svg
   xmlns:dc="http://purl.org/dc/elements/1.1/"
   xmlns:cc="http://creativecommons.org/ns#"
   xmlns:rdf="http://www.w3.org/1999/02/22-rdf-syntax-ns#"
   xmlns:svg="http://www.w3.org/2000/svg"
   xmlns="http://www.w3.org/2000/svg"
   xmlns:xlink="http://www.w3.org/1999/xlink"
   xmlns:sodipodi="http://sodipodi.sourceforge.net/DTD/sodipodi-0.dtd"
   xmlns:inkscape="http://www.inkscape.org/namespaces/inkscape"
   height="128"
   width="128"
   version="1.1"
   id="svg95"
   sodipodi:docname="sc_rowheight.svg"
   inkscape:version="0.92.3 (unknown)"
   inkscape:export-filename="/home/rizmut/Dokumen/Rizmut/Github/libreoffice-style-karasa-jaga/build/images_karasa_jaga/cmd/sc_rowheight.png"
   inkscape:export-xdpi="12"
   inkscape:export-ydpi="12">
  <metadata
     id="metadata101">
    <rdf:RDF>
      <cc:Work
         rdf:about="">
        <dc:format>image/svg+xml</dc:format>
        <dc:type
           rdf:resource="http://purl.org/dc/dcmitype/StillImage" />
        <dc:title></dc:title>
      </cc:Work>
    </rdf:RDF>
  </metadata>
  <defs
     id="defs99">
    <linearGradient
       id="i"
       gradientTransform="matrix(0,1,1,0,-16.00001,-7.979872)"
       gradientUnits="userSpaceOnUse"
       x1="63.979874"
       x2="67.979874"
       xlink:href="#c-3"
       y1="56.000011"
       y2="-7.99999" />
    <linearGradient
       id="c-3">
      <stop
         offset="0"
         stop-color="#0968ef"
         id="stop12-6" />
      <stop
         offset="1"
         stop-color="#aecffc"
         id="stop14-7" />
    </linearGradient>
  </defs>
  <sodipodi:namedview
     pagecolor="#ffffff"
     bordercolor="#666666"
     borderopacity="1"
     objecttolerance="10"
     gridtolerance="10"
     guidetolerance="10"
     inkscape:pageopacity="0"
     inkscape:pageshadow="2"
     inkscape:window-width="1366"
     inkscape:window-height="706"
     id="namedview97"
     showgrid="true"
     inkscape:zoom="7.375"
     inkscape:cx="63.68837"
     inkscape:cy="74.6083"
     inkscape:window-x="0"
     inkscape:window-y="0"
     inkscape:window-maximized="1"
     inkscape:current-layer="svg95">
    <inkscape:grid
       type="xygrid"
       id="grid872"
       spacingx="4"
       spacingy="4"
       empspacing="2" />
  </sodipodi:namedview>
  <linearGradient
     id="a"
     gradientTransform="matrix(1.0769499 0 0 1.5652564 2.256411 -5.222398)"
     gradientUnits="userSpaceOnUse"
     x1="46.048"
     x2="46.048"
     y1="110.69923"
     y2="16.6203">
    <stop
       offset="0"
       stop-color="#c7cdd7"
       id="stop2" />
    <stop
       offset="1"
       stop-color="#fff"
       id="stop4" />
  </linearGradient>
  <linearGradient
     id="b"
     gradientUnits="userSpaceOnUse"
     x1="67.266975"
     x2="67.266975"
     y1="176.02724"
     y2="-80.020844">
    <stop
       offset="0"
       id="stop7" />
    <stop
       offset="1"
       stop-color="#fff"
       id="stop9" />
  </linearGradient>
  <linearGradient
     id="c"
     gradientUnits="userSpaceOnUse"
     x1="80"
     x2="128.00005"
     y1="72"
     y2="72">
    <stop
       offset="0"
       stop-color="#fff"
       id="stop12" />
    <stop
       offset="1"
       stop-color="#fff"
       stop-opacity="0"
       id="stop14" />
  </linearGradient>
  <mask
     id="d"
     maskUnits="userSpaceOnUse">
    <path
       d="m0 16h128.00005v112h-128.00005z"
       fill="url(#c)"
       id="path17" />
  </mask>
  <linearGradient
     id="e"
     gradientTransform="matrix(0 -1 -1 0 88.00001 108.0355)"
     gradientUnits="userSpaceOnUse"
     x1="113.15723"
     x2="39.268185"
     xlink:href="#f"
     y1="25.786163"
     y2="25.786163" />
  <linearGradient
     id="f">
    <stop
       offset="0"
       stop-color="#0968ef"
       id="stop21" />
    <stop
       offset="1"
       stop-color="#aecffc"
       id="stop23" />
  </linearGradient>
  <linearGradient
     id="g"
     gradientTransform="matrix(0 1 -1 0 88.00001 19.844032)"
     gradientUnits="userSpaceOnUse"
     x1="113.15723"
     x2="39.268185"
     xlink:href="#f"
     y1="25.786163"
     y2="25.786163" />
  <text
     x="552.36987"
     y="202.81038"
     id="text29">
    <tspan
       fill="#555"
       x="552.36987"
       y="219.61037"
       id="tspan27" />
  </text>
  <text
     x="284.18808"
     y="202.81038"
     id="text33">
    <tspan
       fill="#555"
       x="284.18808"
       y="219.61037"
       id="tspan31" />
  </text>
  <text
     x="-10.252362"
     y="133.87732"
     id="text37">
    <tspan
       fill="#555"
       x="-10.252362"
       y="150.67731"
       id="tspan35" />
  </text>
  <text
     x="161.66467"
     y="-39.856026"
     id="text41">
    <tspan
       fill="#555"
       x="161.66467"
       y="-23.056038"
       id="tspan39" />
  </text>
  <text
     x="681.37421"
     y="191.74835"
     id="text45">
    <tspan
       fill="#555"
       x="681.37421"
       y="208.54834"
       id="tspan43" />
  </text>
  <text
     x="386.93372"
     y="122.81529"
     id="text49">
    <tspan
       fill="#555"
       x="386.93372"
       y="139.61528"
       id="tspan47" />
  </text>
  <text
     x="916.79553"
     y="269.00107"
     id="text53">
    <tspan
       fill="#555"
       x="916.79553"
       y="285.80106"
       id="tspan51" />
  </text>
  <g
     mask="url(#d)"
     transform="translate(0 -8)"
     id="g59">
    <path
       d="M 36.906408,55.955807 H 128 V 80 H 36.906408 Z"
       id="path55"
       inkscape:connector-curvature="0"
       style="fill:url(#a)"
       sodipodi:nodetypes="ccccc" />
    <path
       d="m 32,56 v 4 28 4 4 h 5 38 5 27 5 16 V 88 H 112 V 64 h 16 V 56 H 112 107 80 75 37 Z m 5,8 H 75 V 88 H 37 Z m 43,0 h 27 V 88 H 80 Z"
       transform="translate(0,-8)"
       id="path57"
       inkscape:connector-curvature="0"
       style="fill:url(#b)"
       sodipodi:nodetypes="cccccccccccccccccccccccccccccccc" />
  </g>
  <text
     x="-125.08443"
     y="-253.18964"
     id="text63">
    <tspan
       fill="#555"
       x="-125.08443"
       y="-236.38965"
       id="tspan61" />
  </text>
  <text
     x="-393.26624"
     y="-253.18964"
     id="text67">
    <tspan
       fill="#555"
       x="-393.26624"
       y="-236.38965"
       id="tspan65" />
  </text>
  <text
     x="-687.70667"
     y="-322.12268"
     id="text71">
    <tspan
       fill="#555"
       x="-687.70667"
       y="-305.32269"
       id="tspan69" />
  </text>
  <text
     x="-515.78961"
     y="-495.85605"
     id="text75">
    <tspan
       fill="#555"
       x="-515.78961"
       y="-479.05606"
       id="tspan73" />
  </text>
  <text
     x="3.919907"
     y="-264.25165"
     id="text79">
    <tspan
       fill="#555"
       x="3.919907"
       y="-247.45168"
       id="tspan77" />
  </text>
  <text
     x="-290.5206"
     y="-333.18472"
     id="text83">
    <tspan
       fill="#555"
       x="-290.5206"
       y="-316.38474"
       id="tspan81" />
  </text>
  <text
     x="239.34123"
     y="-186.99895"
     id="text87">
    <tspan
       fill="#555"
       x="239.34123"
       y="-170.19896"
       id="tspan85" />
  </text>
  <path
     inkscape:connector-curvature="0"
     style="fill:url(#i);fill-rule:evenodd"
     d="M 24,40 H 0 v 8 H 8 V 72 H 0 v 8 H 24 V 72 H 16 V 48 h 8 z"
     id="path71"
     sodipodi:nodetypes="ccccccccccccc" />
</svg>
